icon-themes/sifr_svg/cmd/lc_mirror.svg

<svg viewBox="0 0 24 24" xmlns="http://www.w3.org/2000/svg"><path d="m11 1v4h2v-4zm-4 1-6 20h8v-20zm8 0v20h8l-6-20zm-4 5v4h2v-4zm-4 1v12h-3.5zm4 5v4h2v-4zm0 6v4h2v-4z" fill="#555753"/></svg>

<svg xmlns="http://www.w3.org/2000/svg" viewBox="0 0 24 24">
  <path
     style="fill:#555753"
     d="m 11,1 v 4 h 2 V 1 Z M 7,2 1,22 H 9 V 2 Z m 8,0 v 20 h 8 L 17,2 Z m -4,5 v 4 h 2 V 7 Z M 7,8 V 20 H 3.5 Z m 4,5 v 4 h 2 v -4 z m 0,6 v 4 h 2 v -4 z"
     />
</svg>
